src/assets/svg/icons/fa/nuevos/classic/light/hands-holding-circle classic light.svg

<svg xmlns="http://www.w3.org/2000/svg" viewBox="0 0 640 512"><!--! Font Awesome Pro 6.4.0 by @fontawesome - https://fontawesome.com License - https://fontawesome.com/license (Commercial License) Copyright 2023 Fonticons, Inc. --><path d="M416 128a96 96 0 1 0 -192 0 96 96 0 1 0 192 0zm-224 0a128 128 0 1 1 256 0 128 128 0 1 1 -256 0zM64 64c35.3 0 64 28.7 64 64V252.3c0 4.6 .4 9.1 1.3 13.5c2.1-3.2 4.6-6.3 7.4-9.1c21.7-21.7 56.9-21.7 78.6 0L306.6 348c5.1 5.1 9.6 10.6 13.4 16.6c3.8-5.9 8.3-11.5 13.4-16.6l91.3-91.3c21.7-21.7 56.9-21.7 78.6 0c2.8 2.8 5.3 5.9 7.4 9.1c.9-4.4 1.3-8.9 1.3-13.5V128c0-35.3 28.7-64 64-64s64 28.7 64 64V344.2c0 29.7-11.8 58.2-32.8 79.2l-83.9 83.9c-6.2 6.2-16.4 6.2-22.6 0s-6.2-16.4 0-22.6l83.9-83.9c15-15 23.4-35.4 23.4-56.6V128c0-17.7-14.3-32-32-32s-32 14.3-32 32V252.3c0 27.1-10.8 53.1-29.9 72.2l-10.8 10.8-44 44-16 16c-6.2 6.2-16.4 6.2-22.6 0s-6.2-16.4 0-22.6l16-16 0 0 44-44 0 0c9.2-9.2 9.2-24.2 0-33.4s-24.2-9.2-33.4 0L356 370.6c-12.8 12.8-20 30.2-20 48.3V496c0 8.8-7.2 16-16 16s-16-7.2-16-16V418.9c0-18.1-7.2-35.5-20-48.3l-91.3-91.3c-9.2-9.2-24.2-9.2-33.4 0s-9.2 24.2 0 33.4l44 44 16 16c6.2 6.2 6.2 16.4 0 22.6s-16.4 6.2-22.6 0l-16-16 0 0-44-44 0 0-10.7-10.8C106.8 305.4 96 279.4 96 252.3V128c0-17.7-14.3-32-32-32s-32 14.3-32 32V344.2c0 21.2 8.4 41.6 23.4 56.6l83.9 83.9c6.2 6.2 6.2 16.4 0 22.6s-16.4 6.2-22.6 0L32.8 423.4C11.8 402.4 0 373.9 0 344.2V128C0 92.7 28.7 64 64 64z"/></svg>

<svg xmlns="http://www.w3.org/2000/svg" viewBox="0 0 640 512"><path d="M448 128C448 198.7 390.7 256 320 256C249.3 256 192 198.7 192 128C192 57.31 249.3 0 320 0C390.7 0 448 57.31 448 128zM320 32C266.1 32 224 74.98 224 128C224 181 266.1 224 320 224C373 224 416 181 416 128C416 74.98 373 32 320 32zM64 64C99.35 64 128 92.65 128 128V252.3C128 256.9 128.4 261.4 129.3 265.8C131.4 262.6 133.9 259.5 136.7 256.7C158.4 234.1 193.6 234.1 215.3 256.7L306.6 347.1C311.7 353.1 316.2 358.6 320 364.6C323.8 358.6 328.3 353.1 333.4 347.1L424.7 256.7C446.4 234.1 481.6 234.1 503.3 256.7C506.1 259.5 508.6 262.6 510.7 265.8C511.6 261.4 512 256.9 512 252.3V128C512 92.65 540.7 64 576 64C611.3 64 640 92.65 640 128V344.2C640 373.9 628.2 402.4 607.2 423.4L523.3 507.3C517.1 513.6 506.9 513.6 500.7 507.3C494.4 501.1 494.4 490.9 500.7 484.7L584.6 400.8C599.6 385.8 608 365.5 608 344.2V127.1C608 110.3 593.7 95.1 576 95.1C558.3 95.1 544 110.3 544 127.1V252.3C544 279.4 533.2 305.4 514.1 324.5L443.3 395.3C437.1 401.6 426.9 401.6 420.7 395.3C414.4 389.1 414.4 378.9 420.7 372.7L480.7 312.7C489.9 303.5 489.9 288.5 480.7 279.3C471.5 270.1 456.5 270.1 447.3 279.3L356 370.6C343.2 383.4 336 400.8 336 418.9V496C336 504.8 328.8 512 320 512C311.2 512 304 504.8 304 496V418.9C304 400.8 296.8 383.4 283.1 370.6L192.7 279.3C183.5 270.1 168.5 270.1 159.3 279.3C150.1 288.5 150.1 303.5 159.3 312.7L219.3 372.7C225.6 378.9 225.6 389.1 219.3 395.3C213.1 401.6 202.9 401.6 196.7 395.3L125.9 324.5C106.8 305.4 96 279.4 96 252.3V127.1C96 110.3 81.67 95.1 64 95.1C46.33 95.1 32 110.3 32 127.1V344.2C32 365.5 40.43 385.8 55.43 400.8L139.3 484.7C145.6 490.9 145.6 501.1 139.3 507.3C133.1 513.6 122.9 513.6 116.7 507.3L32.8 423.4C11.8 402.4 0 373.9 0 344.2V128C0 92.65 28.65 64 64 64H64z"/></svg>
